X: 38606
T: Stones Of Stenness
R: barndance
M: 4/4
K: Amajor
E2|A>GAB c2BA|d>cde fagf|e2A>c ecae|c2B>c B2E2|
A>GAB c2BA|d>cde fagf|e2A>c edBG|A2A>B A2||
cd|e2cd e2a>g|fdAd f2e>d|c2A>c ecae|c2B>c B2E2|
A>GAB c2BA|d>cde fagf|e2A>c edBG|A2A>B A2||

